Papirus-nordic/64x64/places/folder-red-github.svg

<svg xmlns="http://www.w3.org/2000/svg" width="64" height="64" version="1.1">
 <rect style="opacity:0.2" width="50" height="32" x="7" y="24" rx="2.5" ry="2.5"/>
 <path style="fill:#ae4f58" d="M 7,44.5 C 7,45.885 8.115,47 9.5,47 H 54.5 C 55.885,47 57,45.885 57,44.5 V 17.5 C 57,16.115 55.885,15 54.5,15 H 29 V 12.5 C 29,11.115 27.885,10 26.5,10 H 9.5 C 8.115,10 7,11.115 7,12.5"/>
 <rect style="opacity:0.2" width="50" height="32" x="7" y="22" rx="2.5" ry="2.5"/>
 <rect style="fill:#e4e4e4" width="44" height="20" x="10" y="18" rx="2.5" ry="2.5"/>
 <rect style="fill:#bf616a" width="50" height="32" x="7" y="23" rx="2.5" ry="2.5"/>
 <path style="opacity:0.1;fill:#ffffff" d="M 9.5,10 C 8.115,10 7,11.115 7,12.5 V 13.5 C 7,12.115 8.115,11 9.5,11 H 26.5 C 27.885,11 29,12.115 29,13.5 V 12.5 C 29,11.115 27.885,10 26.5,10 Z M 29,15 V 16 H 54.5 C 55.89,16 57,17.115 57,18.5 V 17.5 C 57,16.115 55.89,15 54.5,15 Z"/>
 <path style="fill:#974a4d" d="m 32,29.024709 c -5.54,0 -10,4.46 -10,10 0,4.466211 2.95902,8.22516 6.98535,9.516601 v -1.677417 c -2.531314,0.5586 -3.123045,-1.113282 -3.123045,-1.113282 -0.413988,-1.068275 -1.010743,-1.152462 -1.010743,-1.152462 -0.826287,-0.573213 0.06104,-0.563965 0.06104,-0.563965 0.9134,0.06524 1.394042,0.95459 1.394042,0.95459 0.811752,1.4129 2.189568,1.005742 2.708006,0.769042 0.08269,-0.597162 0.259759,-1.60705 0.519534,-1.838087 C 27.513559,43.686354 26,42.394209 26,38.850959 c 0,-1.009251 0.595875,-2.334671 1.178,-2.980548 -0.09387,-0.233875 -0.40761,-1.586795 0.08789,-2.859419 0,0 0.04774,-0.01503 0.146485,-0.01954 0.296125,-0.01387 0.96225,0.460581 2.265625,1.357956 0.78693,-0.226079 1.693295,-0.33179 2.322004,-0.336915 0.708915,-0.0059 1.429793,0.116113 2.169513,0.336915 1.30375,-0.897375 2.136641,-1.374147 2.431641,-1.360399 h 0.0025 c 0.09863,0.0046 0.146484,0.01954 0.146485,0.01954 0.49665,1.272575 0.183632,2.627986 0.09034,2.86186 C 37.423632,36.51641 38,37.841705 38,38.850958 c 0,3.552275 -2.276108,4.832682 -4.302858,5.061445 0.326258,0.2855 0.407716,0.851605 0.407716,1.713867 0,1.0414 -0.0026,1.7183 -0.0049,2.148438 V 48.7 c 4.320709,-1.105851 7.900023,-5.000397 7.900023,-9.675292 0,-5.54 -4.46,-10 -10,-10 z"/>
</svg>

<svg xmlns="http://www.w3.org/2000/svg" width="64" height="64"><rect width="50" height="32" x="7" y="24" rx="2.5" ry="2.5" opacity=".2"/><path d="M7 44.5C7 45.885 8.115 47 9.5 47h45c1.385 0 2.5-1.115 2.5-2.5v-27c0-1.385-1.115-2.5-2.5-2.5H29v-2.5c0-1.385-1.115-2.5-2.5-2.5h-17A2.495 2.495 0 0 0 7 12.5" fill="#ae4f58"/><rect width="50" height="32" x="7" y="22" rx="2.5" ry="2.5" opacity=".2"/><rect width="44" height="20" x="10" y="18" rx="2.5" ry="2.5" fill="#e4e4e4"/><rect width="50" height="32" x="7" y="23" rx="2.5" ry="2.5" fill="#bf616a"/><path d="M9.5 10A2.495 2.495 0 0 0 7 12.5v1C7 12.115 8.115 11 9.5 11h17c1.385 0 2.5 1.115 2.5 2.5v-1c0-1.385-1.115-2.5-2.5-2.5zM29 15v1h25.5c1.39 0 2.5 1.115 2.5 2.5v-1c0-1.385-1.11-2.5-2.5-2.5z" opacity=".1" fill="#fff"/><path d="M32 29.025c-5.54 0-10 4.46-10 10 0 4.466 2.959 8.225 6.985 9.516v-1.677c-2.531.558-3.123-1.113-3.123-1.113-.414-1.069-1.01-1.153-1.01-1.153-.827-.573.06-.564.06-.564.914.065 1.395.955 1.395.955.811 1.413 2.19 1.006 2.708.769.082-.597.26-1.607.52-1.838C27.513 43.686 26 42.394 26 38.85c0-1.01.596-2.335 1.178-2.98-.094-.234-.408-1.587.088-2.86 0 0 .048-.015.146-.02.297-.013.963.461 2.266 1.358A9.368 9.368 0 0 1 32 34.012c.709-.005 1.43.117 2.17.337 1.303-.897 2.136-1.374 2.431-1.36h.003c.098.005.146.02.146.02.497 1.272.184 2.628.09 2.861.584.646 1.16 1.972 1.16 2.981 0 3.552-2.276 4.833-4.303 5.061.326.286.408.852.408 1.714 0 1.042-.003 1.719-.005 2.149v.925c4.32-1.106 7.9-5 7.9-9.675 0-5.54-4.46-10-10-10z" fill="#974a4d"/></svg>
